X: 7076
T: Chris Stout's Compliments To The Bon Accord Ale House
R: waltz
M: 3/4
K: Eminor
|:"Em"EG GE FD|E3D B,A,|"C"B,G GE GA|F3 E GF|"D"EF ED B,A,|1 B,D E2 E2:|2 B,D EA Bd||
|:"Em" eg ge fd|e3 d BA|"Am"Bg ge ga|"Bm" f3 e gf|"C"ef ed BA|"D"Bd "Em"e2 z2:|
[M: 2/4] EF GB|:[M: 3/4] "Am" c3 A Bd|cA BG GB|"C"AB AG E2|DE GA Bd|
"Em"g3 f (3efg|"Bm"fd B2 AB|"G"dg gd B2|AG AG AB
|[M: 2/4] "Am"(3cBA dc|1 [M: 3/4] "Bm"B2 AG ED|"C"E3 "D"F GB:|2 [M: 3/4] "Bm"B2 AG ED||

